X: 1166
T:The Mason's Apron (A70)
N: page A70
N: heptatonic
N: matches 90
R:reel
C:Trad.
M:C
L:1/8
K:A
"A"c2A2 "A/E"ABAF |"A" EFAB "A/E" cABc | "Bm" d2B2 "Bm/Bb"BcBA |\
 "Bm/A"Bcde "E7/G#" defg | "A"a2A2 "A/E"cBAF |"A" EFAB cABA |
 "D"  Bcde fgaf |[1 "E7"edcB "A"A3 A :|[2"E7"edcB "A"A2|: ed |\
"A"c2ec fcec | Acec fedc |
"Bm" d2fB gdfd | d2fd "E7"gfed |\
"A"c2ec "C#m/G#"fcec |"F#m" Acec "A/E"fedc | "D" dcde "A/C#" fgaf |\
 "E7/B"edcB "A"A2 :|
